X: 38992
T: Swallow's Tail, The
R: reel
M: 4/4
K: Adorian
ag|(~e2e)d eA ~A2|(~e2e)f(~g2g)f|ge dB dG ~G2|dG A/B/d ~g2ag|
(~e2e)d eA ~A2|(~e2e)f(~g2g)a|ag ~g2ag ed|~e2 dB {G/}A2 ag|
ag ed eA ~A2|(~e2e)f(~g2g)f|ge dB dG ~G2|dG A/B/d ~g2ag|
(~e2e)d eA ~A2|(~e2e)f(~g2g)a|ag ~g2ag ed|~e2 dB {G/}A2 ^cd|
|:ea a^g (~a2a) =g|(~e2e)f (~g2g)f|ge dB dG ~G2|dG A/B/d g2ag|
(~e2e)d eA ~A2|(~e2e)f(~g2g)a|ag ~g2ag ed|1 ~e2 dB {G/}A2 B/^c/d:|2 ~e2 dB {G/}A4||

